X: 6843
T: Charlie Lennon's
R: hornpipe
M: 4/4
K: Gmajor
|:dc|BGBd gb (3agf|gdBG DGBd|cBcd ef (3gfe|(3ded cB A2dc|
BGBd gb (3agf|gdBG D2dc|(3Bcd gd ecAF|G2 (3AGF G2:|
|:ef|gabg fagf|ef (3gfe fdBd|gabg fagf|(3efg fe fdBd|
(3cdc Ac (3BcB GB|(3ABA FA GFEF|DEFG AB (3cBA|(3GBd (3gdB G2:|

